X: 58
T:Jerry O'Reilly's Reel (#254)
M:4/4
L:1/8
S:Jerry O'Reilly, San Francisco
R:Reel
K:G
G2 BG dGBA|G2 dB AGFA|G2 BG dcBd|g2 ed (3BAG FA:||
g2 fg egdd|g2 fg fgaf|g2 fg egdd|g2 ed (3BAG FA|
g2 fg egdd|g2 fg fgaf|bgaf ge d2|eged (3BAG FA||

